X:1
T:Pohlsk dans
T:(Totakt-pols, nr. JMB-56)
S:efter Jens Millersen Bjerg
R:Totakt-pols
O:Husby, Ringkbing amt, Danmark
N:Lt nr. 2 p CD:n "Totakt-pols" av ke Persson, Ethel Wieslander m fl. Noterna kommer frn nothftet som kan kpas med CD:n s vissa avvikelser kan frekomma. Lten har dr beteckningen JMB-56. Danmark|Fler ltar frn Danmark...
M:2/4
L:1/16
K:D
|: d3AF3A | d3fe3c | d2d2c2c2 | {c}B2{c}B2 A4 :: A3ce3c | (A2f2) g4 |
f3ed3f | (e2c2) d4 | A3ce3c | (A2f2) g4 | (fg)(af) d2f2 | e2c2 d4 :|
